Orbital Cannons/Orbital 380MM HE Barrage.svg

<svg id="HD2-O380" xmlns="http://www.w3.org/2000/svg" xmlns:xlink="http://www.w3.org/1999/xlink" viewBox="0 0 126 126">
  <defs>
    <style>
      .cls-1 {
        fill: #de7b6c;
      }

      .cls-1, .cls-2 {
        fill-rule: evenodd;
      }

      .cls-2 {
        fill: #fff;
      }
    </style>
  </defs>
  <path id="Shape_31_copy_2" data-name="Shape 31 copy 2" class="cls-1" d="M98.924,120c-0.329-11.02-2-19.88-4.454-27h15.288A53.738,53.738,0,0,1,117,120H98.924ZM96,89V77.287A54.06,54.06,0,0,1,107.9,90H95.047ZM77,72.586V89l0.947,1H65V85.393L73,77V70.057A33.58,33.58,0,0,1,77,72.586ZM35.5,93H62v27H30.912A85.548,85.548,0,0,1,35.5,93ZM54,70.062V77l8,8.449V90H36.681C40.1,82,45.5,74.551,54,70.062ZM18.1,90A54.074,54.074,0,0,1,35.665,73.456l4.709,4.5A50.98,50.98,0,0,0,33.635,90H18.1Zm9.977,30H9a53.732,53.732,0,0,1,7.242-27H32.523C30.077,100.12,28.4,108.98,28.076,120ZM65,120V93H80.788l5.681,6,5.221-5.477A85.992,85.992,0,0,1,96.089,120H65Z"/>
  <g>
    <path class="cls-2" d="M35,68l6.5,7L48,68V46s3-.834,3-3V26H32V43.117A3.032,3.032,0,0,0,35,46V68Z"/>
    <path class="cls-2" d="M33,17a0.961,0.961,0,0,0-1,1v1a0.961,0.961,0,0,0,1,1H50a0.952,0.952,0,0,0,1-1V18a1,1,0,0,0-1-1H33Z"/>
    <path id="Shape_29_copy" data-name="Shape 29 copy" class="cls-2" d="M57,76l6.5,7L70,76V54s3-.834,3-3V34H54V51.117A3.032,3.032,0,0,0,57,54V76Z"/>
    <path id="Shape_30_copy" data-name="Shape 30 copy" class="cls-2" d="M55,25a0.961,0.961,0,0,0-1,1v1a0.961,0.961,0,0,0,1,1H72a0.952,0.952,0,0,0,1-1V26a1,1,0,0,0-1-1H55Z"/>
    <path id="Shape_29_copy_2" data-name="Shape 29 copy 2" class="cls-2" d="M80,88l6.5,7L93,88V66s3-.834,3-3V46H77V63.117A3.032,3.032,0,0,0,80,66V88Z"/>
    <path id="Shape_30_copy_2" data-name="Shape 30 copy 2" class="cls-2" d="M78,37a0.961,0.961,0,0,0-1,1v1a0.961,0.961,0,0,0,1,1H95a0.952,0.952,0,0,0,1-1V38a1,1,0,0,0-1-1H78Z"/>
  </g>
</svg>

<svg xmlns="http://www.w3.org/2000/svg" viewBox="0 0 126 126">
<path fill="#de7b6c" d="M99 120a91 91 0 0 0-4.5-27h15.3a53.7 53.7 0 0 1 7.2 27H99Zm-3-31V77.3A54 54 0 0 1 107.9 90H95ZM77 72.6V89l1 1H65v-4.6l8-8.4v-7a33.6 33.6 0 0 1 4 2.6ZM35.5 93H62v27H31a85.5 85.5 0 0 1 4.5-27ZM54 70v7l8 8.4V90H36.7A39 39 0 0 1 54 70ZM18.1 90a54 54 0 0 1 17.6-16.5l4.7 4.5a51 51 0 0 0-6.8 12H18.1Zm10 30H9a53.7 53.7 0 0 1 7.2-27h16.3c-2.4 7.1-4.1 16-4.4 27Zm36.9 0V93h15.8l5.7 6 5.2-5.5A86 86 0 0 1 96 120H65Z"/>
<path fill="#fff" d="m35 68 6.5 7 6.5-7V46s3-.8 3-3V26H32v17.1a3 3 0 0 0 3 2.9v22ZM33 17a1 1 0 0 0-1 1v1a1 1 0 0 0 1 1h17a1 1 0 0 0 1-1v-1a1 1 0 0 0-1-1H33Z"/>
<path fill="#fff" d="m57 76 6.5 7 6.5-7V54s3-.8 3-3V34H54v17.1a3 3 0 0 0 3 2.9v22Z"/>
<path fill="#fff" d="M55 25a1 1 0 0 0-1 1v1a1 1 0 0 0 1 1h17a1 1 0 0 0 1-1v-1a1 1 0 0 0-1-1H55Z"/>
<path fill="#fff" d="m80 88 6.5 7 6.5-7V66s3-.8 3-3V46H77v17.1a3 3 0 0 0 3 2.9v22Z"/>
<path fill="#fff" d="M78 37a1 1 0 0 0-1 1v1a1 1 0 0 0 1 1h17a1 1 0 0 0 1-1v-1a1 1 0 0 0-1-1H78Z"/>
</svg>
